src/assets/skills/react-js.svg

<svg fill="none" height="100" viewBox="0 0 100 100" width="100" xmlns="http://www.w3.org/2000/svg" xmlns:xlink="http://www.w3.org/1999/xlink"><clipPath id="a"><path d="m0 0h100v100h-100z"/></clipPath><g clip-path="url(#a)"><path d="m50.3067 58.8163c4.869 0 8.8162-3.9472 8.8162-8.8162 0-4.8691-3.9472-8.8163-8.8162-8.8163-4.8691 0-8.8163 3.9472-8.8163 8.8163 0 4.869 3.9472 8.8162 8.8163 8.8162z" fill="#61dafb"/><g stroke="#61dafb" stroke-width="5"><path d="m50.3066 68.0626c26.1267 0 47.3066-8.0869 47.3066-18.0626 0-9.9756-21.1799-18.0625-47.3066-18.0625s-47.3066 8.0869-47.3066 18.0625c0 9.9757 21.1799 18.0626 47.3066 18.0626z"/><path d="m34.6639 59.0313c13.0634 22.6264 30.6568 36.9253 39.2959 31.9374 8.6392-4.9878 5.0527-27.3736-8.0107-50-13.0633-22.6264-30.6567-36.92527-39.2959-31.93744-8.6391 4.98784-5.0526 27.37364 8.0107 50.00004z"/><path d="m34.664 40.9687c-13.0633 22.6264-16.6499 45.0122-8.0107 50s26.2326-9.3111 39.2959-31.9375c13.0634-22.6264 16.6499-45.0121 8.0107-49.99996-8.6391-4.98783-26.2325 9.31106-39.2959 31.93746z"/></g></g></svg>

<svg width="100" height="100" viewBox="0 0 100 100" fill="none" xmlns="http://www.w3.org/2000/svg">
<g clip-path="url(#clip0_111_123)">
<path d="M50.3067 58.8163C55.1757 58.8163 59.1229 54.8691 59.1229 50.0001C59.1229 45.131 55.1757 41.1838 50.3067 41.1838C45.4376 41.1838 41.4904 45.131 41.4904 50.0001C41.4904 54.8691 45.4376 58.8163 50.3067 58.8163Z" fill="#61DAFB"/>
<path d="M50.3066 68.0626C76.4333 68.0626 97.6132 59.9757 97.6132 50C97.6132 40.0244 76.4333 31.9375 50.3066 31.9375C24.1799 31.9375 3 40.0244 3 50C3 59.9757 24.1799 68.0626 50.3066 68.0626Z" stroke="#61DAFB" stroke-width="5"/>
<path d="M34.6639 59.0313C47.7273 81.6577 65.3207 95.9566 73.9598 90.9687C82.599 85.9809 79.0125 63.5951 65.9491 40.9687C52.8858 18.3423 35.2924 4.04343 26.6532 9.03126C18.0141 14.0191 21.6006 36.4049 34.6639 59.0313Z" stroke="#61DAFB" stroke-width="5"/>
<path d="M34.664 40.9687C21.6007 63.5951 18.0141 85.9809 26.6533 90.9687C35.2925 95.9565 52.8859 81.6576 65.9492 59.0312C79.0126 36.4048 82.5991 14.0191 73.9599 9.03124C65.3208 4.04341 47.7274 18.3423 34.664 40.9687Z" stroke="#61DAFB" stroke-width="5"/>
</g>
<defs>
<clipPath id="clip0_111_123">
<rect width="100" height="100" fill="white"/>
</clipPath>
</defs>
</svg>
